resources/svg/solid/school.svg

<svg xmlns="http://www.w3.org/2000/svg" fill="currentColor" stroke="none" viewBox="0 0 24 24"><path d="M21 10h-2V4h1V2H4v2h1v6H3a1 1 0 0 0-1 1v9h20v-9a1 1 0 0 0-1-1zm-7 8v-4h-4v4H7V4h10v14h-3z"/><path d="M9 6h2v2H9zm4 0h2v2h-2zm-4 4h2v2H9zm4 0h2v2h-2z"/></svg>

<svg xmlns="http://www.w3.org/2000/svg" fill="currentColor" stroke="none" viewBox="0 0 24 24"><path d="M21,10h-2V4h1V2h-2H6H4v2h1v6H3c-0.553,0-1,0.448-1,1v7v1v1h1h2h1h12h1h2h1v-1v-1v-7C22,10.448,21.553,10,21,10z M14,18v-4 h-4v4H7V4h10v14H14z"/><path d="M9 6H11V8H9zM13 6H15V8H13zM9 10H11V12H9zM13 10H15V12H13z"/></svg>
